icons/circle/48/fiji.svg

<svg xmlns="http://www.w3.org/2000/svg" version="1.1" viewBox="0 0 48 48">
	<defs>
		<linearGradient id="bg" gradientUnits="userSpaceOnUse" x1="0" x2="0" y1="1" y2="47">
			<stop offset="0" stop-color="#76aee6"/>
			<stop offset="1" stop-color="#65a4e3"/>
		</linearGradient>
	</defs>
	<path opacity=".05" d="m 36.31 5 c 5.859 4.062 9.688 10.831 9.688 18.5 c 0 12.426 -10.07 22.5 -22.5 22.5 c -7.669 0 -14.438 -3.828 -18.5 -9.688 c 1.037 1.822 2.306 3.499 3.781 4.969 c 4.085 3.712 9.514 5.969 15.469 5.969 c 12.703 0 23 -10.298 23 -23 c 0 -5.954 -2.256 -11.384 -5.969 -15.469 c -1.469 -1.475 -3.147 -2.744 -4.969 -3.781 z m 4.969 3.781 c 3.854 4.113 6.219 9.637 6.219 15.719 c 0 12.703 -10.297 23 -23 23 c -6.081 0 -11.606 -2.364 -15.719 -6.219 c 4.16 4.144 9.883 6.719 16.219 6.719 c 12.703 0 23 -10.298 23 -23 c 0 -6.335 -2.575 -12.06 -6.719 -16.219 z"/>
	<path opacity=".1" d="m 41.28 8.781 c 3.712 4.085 5.969 9.514 5.969 15.469 c 0 12.703 -10.297 23 -23 23 c -5.954 0 -11.384 -2.256 -15.469 -5.969 c 4.113 3.854 9.637 6.219 15.719 6.219 c 12.703 0 23 -10.298 23 -23 c 0 -6.081 -2.364 -11.606 -6.219 -15.719 z"/>
	<path opacity=".2" d="m 31.25 2.375 c 8.615 3.154 14.75 11.417 14.75 21.13 c 0 12.426 -10.07 22.5 -22.5 22.5 c -9.708 0 -17.971 -6.135 -21.12 -14.75 a 23 23 0 0 0 44.875 -7 a 23 23 0 0 0 -16 -21.875 z"/>
	<circle fill="url(#bg)" cx="24" cy="24" r="23"/>
	<path opacity=".1" d="m 40.03 7.531 c 3.712 4.084 5.969 9.514 5.969 15.469 0 12.703 -10.297 23 -23 23 c -5.954 0 -11.384 -2.256 -15.469 -5.969 4.178 4.291 10.01 6.969 16.469 6.969 c 12.703 0 23 -10.298 23 -23 0 -6.462 -2.677 -12.291 -6.969 -16.469 z"/>
	<path d="M 13,13 H35 V17 H17 V35 H13 Z M 19,19 H23 V29 H19 Z M 25,19 H29 V35 H19 V31 H25 Z M 31,19 H35 V29 H31 Z" opacity=".1" transform="translate(1 1)"/>
	<path d="M 13,13 H35 V17 H17 V35 H13 Z M 19,19 H23 V29 H19 Z M 25,19 H29 V35 H19 V31 H25 Z M 31,19 H35 V29 H31 Z" fill="#163f7a"/>
</svg>

<svg version="1.1" viewBox="0 0 48 48" xmlns="http://www.w3.org/2000/svg">
 <defs>
  <linearGradient id="bg" x2="0" y1="1" y2="47" gradientUnits="userSpaceOnUse">
   <stop stop-color="#76aee6" offset="0"/>
   <stop stop-color="#65a4e3" offset="1"/>
  </linearGradient>
 </defs>
 <path d="m36.3 5c5.86 4.06 9.69 10.8 9.69 18.5 0 12.4-10.1 22.5-22.5 22.5-7.67 0-14.4-3.83-18.5-9.69 1.04 1.82 2.31 3.5 3.78 4.97 4.08 3.71 9.51 5.97 15.5 5.97 12.7 0 23-10.3 23-23 0-5.95-2.26-11.4-5.97-15.5-1.47-1.48-3.15-2.74-4.97-3.78zm4.97 3.78c3.85 4.11 6.22 9.64 6.22 15.7 0 12.7-10.3 23-23 23-6.08 0-11.6-2.36-15.7-6.22 4.16 4.14 9.88 6.72 16.2 6.72 12.7 0 23-10.3 23-23 0-6.34-2.58-12.1-6.72-16.2z" opacity=".05"/>
 <path d="m41.3 8.78c3.71 4.08 5.97 9.51 5.97 15.5 0 12.7-10.3 23-23 23-5.95 0-11.4-2.26-15.5-5.97 4.11 3.85 9.64 6.22 15.7 6.22 12.7 0 23-10.3 23-23 0-6.08-2.36-11.6-6.22-15.7z" opacity=".1"/>
 <path d="m31.2 2.38c8.62 3.15 14.8 11.4 14.8 21.1 0 12.4-10.1 22.5-22.5 22.5-9.71 0-18-6.14-21.1-14.8a23 23 0 0 0 44.9-7 23 23 0 0 0-16-21.9z" opacity=".2"/>
 <circle cx="24" cy="24" r="23" fill="url(#bg)"/>
 <path d="m40 7.53c3.71 4.08 5.97 9.51 5.97 15.5 0 12.7-10.3 23-23 23-5.95 0-11.4-2.26-15.5-5.97 4.18 4.29 10 6.97 16.5 6.97 12.7 0 23-10.3 23-23 0-6.46-2.68-12.3-6.97-16.5z" opacity=".1"/>
 <path transform="translate(1 1)" d="m13 13h22v4h-18v18h-4zm6 6h4v10h-4zm6 0h4v16h-10v-4h6zm6 0h4v10h-4z" opacity=".1"/>
 <path d="m13 13h22v4h-18v18h-4zm6 6h4v10h-4zm6 0h4v16h-10v-4h6zm6 0h4v10h-4z" fill="#163f7a" style="fill:#1a4789"/>
</svg>
